actions/24/go-next-symbolic.svg

<?xml version="1.0" encoding="UTF-8" standalone="no"?>
<svg
   xmlns:dc="http://purl.org/dc/elements/1.1/"
   xmlns:cc="http://creativecommons.org/ns#"
   xmlns:rdf="http://www.w3.org/1999/02/22-rdf-syntax-ns#"
   xmlns:svg="http://www.w3.org/2000/svg"
   xmlns="http://www.w3.org/2000/svg"
   xmlns:sodipodi="http://sodipodi.sourceforge.net/DTD/sodipodi-0.dtd"
   xmlns:inkscape="http://www.inkscape.org/namespaces/inkscape"
   height="24"
   width="24"
   version="1.1"
   id="svg6"
   sodipodi:docname="go-next-symbolic.svg"
   inkscape:version="1.0 (4035a4fb49, 2020-05-01)">
  <sodipodi:namedview
     inkscape:document-rotation="0"
     pagecolor="#ffffff"
     bordercolor="#666666"
     borderopacity="1"
     objecttolerance="10"
     gridtolerance="10"
     guidetolerance="10"
     inkscape:pageopacity="0"
     inkscape:pageshadow="2"
     inkscape:window-width="1600"
     inkscape:window-height="837"
     id="namedview6"
     showgrid="true"
     inkscape:zoom="26.166667"
     inkscape:cx="11.808918"
     inkscape:cy="12"
     inkscape:window-x="0"
     inkscape:window-y="30"
     inkscape:window-maximized="1"
     inkscape:current-layer="svg6">
    <inkscape:grid
       type="xygrid"
       id="grid870" />
  </sodipodi:namedview>
  <metadata
     id="metadata12">
    <rdf:RDF>
      <cc:Work
         rdf:about="">
        <dc:format>image/svg+xml</dc:format>
        <dc:type
           rdf:resource="http://purl.org/dc/dcmitype/StillImage" />
        <dc:title />
      </cc:Work>
    </rdf:RDF>
  </metadata>
  <defs
     id="defs10" />
  <path
     sodipodi:nodetypes="sscsssscssccsccs"
     id="path873-5-3"
     style="opacity:1;fill:#555761;stroke:none;stroke-width:4;stroke-linecap:round;stroke-linejoin:round;stop-color:#000000"
     d="m 12.999977,4 c -0.554,0 -0.865639,0.4625403 -1,1 V 9 H 4 C 3.446,9 3,9.446 3,10 v 3 c 0,0.554 0.4460001,1 1,1 h 7.999977 v 4 c 0,0.554 0.446,1 1,1 0.298584,0 0.565122,-0.129747 0.748047,-0.335938 l 6.978257,-6.478515 C 20.895364,12.006452 20.999719,11.76574 20.999719,11.5 c 0,-0.26574 -0.104355,-0.506452 -0.273438,-0.685547 L 13.748024,4.3359375 C 13.565099,4.129747 13.298561,4 12.999977,4 Z" />
</svg>

<svg
        xmlns='http://www.w3.org/2000/svg'
        xmlns:svg='http://www.w3.org/2000/svg'
        id='svg6'
        width='24'
        height='24'>
  <path
          id='path873-5-3'
          opacity='1'
          fill='url(#gpa:foreground) #555761'
          fill-opacity='1'
          fill-rule='nonzero'
          stroke='none'
          stroke-width='4'
          stroke-linecap='round'
          stroke-linejoin='round'
          d='M 13 4 C 12.446 4, 12.1343 4.46254, 12 5 L 12 9 L 4 9 C 3.446 9, 3 9.446, 3 10 L 3 13 C 3 13.554, 3.446 14, 4 14 L 12 14 L 12 18 C 12 18.554, 12.446 19, 13 19 C 13.2986 19, 13.5651 18.8703, 13.748 18.6641 L 20.7263 12.1855 C 20.8954 12.0065, 20.9997 11.7657, 20.9997 11.5 C 20.9997 11.2343, 20.8954 10.9935, 20.7263 10.8145 L 13.748 4.33594 C 13.5651 4.12975, 13.2986 4, 13 4 Z'
          class="foreground">
  </path>
</svg>
